X:1
T:Die brünlein die da fliessen
T:Heinrich Isaac
T:Source : Trium vocum cantiones---Nürnberg---J.Petreius---1541. Editor : André Vierendeels (01/09/15).
T:Notes : Original clefs :C1, C3, F4 Original note values have been halved Original text in middle German Editorial accidentals above the staff m 29 in B : 2x semibrevis in original print 
T:Die brünlein die da fliessen
C:Heinrich Isaac
%%score [ 1 2 3 ]
L:1/8
Q:1/4=81
M:2/2
K:C
V:1 treble nm="Discantus" snm="D"
V:2 treble-8 nm="Tenor" snm="T"
V:3 bass nm="Bassus" snm="B"
V:1
 z8 | G4 A4 | B4 c4 | A4 G2 c2 | BA A4 G2 | A8 | z2 c2 cBAG | F4 z2 G2 | A4 D4 | z2 G4 FE | %10
w: |Die brün-|lein die|da flies- *||sen,|die sol, _ _ _|_ die|sol man|trinc- * *|
 F2 G4 F2 | G4 E4 | A2 A4 G2 | A8 | z2 c2 cBAG | F2 A4 G2 | A2 A2 D2 G2- | GA B2 cBAG | %18
w: |* ken|und wer _|_|ein ste- * * *|* * ten|bü- len hat, der|_ _ _ sol _ _ _|
"^#" F2 G4 F2 | G2 D2 F3 G | AB c3 BAG | A2 c4 B2 | c4 z2 c2- | c2 c2 B4 | A4 G4 | z2 F4 ED | C8 | %27
w: im winc- *|ken, ja winc- ken|mit _ den _ _ _|_ au- *|gen, und|_ tret- ten|auff den|fus, _ _|_|
 z4 C4 | F3 G ABcA | Bc A4 G2 | A8 | z4 A4 | A6 G2 | FGAB c2 A2 | B3 c d2 G2- | G2 c3 BAG | %36
w: es|ist ein her- * * *|* * ter or-|den|der|sei- nen|bü- * * * * len|mei- * * den,|_ mei- * * *|
 B2 A3 GFE | FD G4 F2 | G8 |] %39
w: |* * * den|mus.|
V:2
 c4 d4 | e4 f4 | d4 c2 f2- | f2 ed e2 e2 | d3 c B4 | A4 z2 d2 | e4 e4 | d2 cB A2 G2 | %8
w: Die brün-|lein die|da flies- *|* * * sen, die|sol man trinc-|ken, die|sol man|trinc- * * * *|
 c2 c2 B2 G2- | GA B2 cBAG | d2 B2 A4 | G2 c3 d e2 | fedc B2 B2 | A4 z2 d2 | e4 e4 | d2 f4 ed | %16
w: ken, die sol man|_ _ _ trinc- * * *|* * ken,|und wer ein ste-|te _ _ _ bü- len|hat, der|sol im|winc- * * *|
 c2 d3 cBA | G4 z2 G2 | A3 G A4 | G4 z2 d2 | c3 d e2 f2- | fedc d4 | c2 F2 FGAB | cdef gfge | %24
w: |ken, der|sol im winc-|ken, ja|winc- ken mit dem|_ _ _ _ au-|gen, und tret- * * *||
 f2 d4 c2 | d4 d4 | e8 | z4 e4 | d2 f2 f2 e2 | d3 c B4 | A3 B cA d2 | d2 c2 d2 f2- | f2 ed c4 | %33
w: * * ten|auff den|fus,|es|ist ein her- ter|or- * *|den, _ _ _ _|der sei- nen bü-|* * * len,|
 z2 f2 e2 f2 | g2 d4 e2 | edcB c2 c2 | d2 f3 e d2- | d2 cB A2 A2 | G8 |] %39
w: der sei- nen|bü- len, der|sei- * * * nen bü-|len mei- * *|* * * * den|mus.|
V:3
 z8 | z8 | z8 | z4 C,4 | D,4 E,4 | F,4 D,4 | C,8 | D,6 E,2 | F,4 G,4 | E,8 | D,8 | z4 C,4 | %12
w: |||Die|brün- lein|die da|flies-|sen, die|sol man|trinc-|ken,|und|
 D,4 E,4 | F,4 D,4 | C,4 C,4 | D,6 E,2 | F,4 G,4 | E,8 | D,8 | z4 D,4 | A,4 A,4 | A,4 G,4 | A,8 | %23
w: wer ein|ste- ten|bü- len|hat, der|sol im|winc-|ken,|ja|winc- ken|mit den|au-|
 A,4 G,4 | F,4 E,4 | D,4 D,2 C,B,, | A,,8 | z4 A,,4 | D,6 C,2 | D,4 E,4 | F,8 | E,4 D,4 | F,6 E,2 | %33
w: gen, *|tret- ten|auff den _ _|fus,|es|ist ein|her- ter|or-|den, der|sei- nen|
"^#" D,4 A,4 | G,8 | E,8 | D,8 | D,8 | G,,8 |] %39
w: bü- len|mei-|den,|mei-|den|mus.|

